symbols/web/2mp/materialsymbolssharp/2mp_wght300_48px.svg

<svg xmlns="http://www.w3.org/2000/svg" height="48" width="48"><path d="M20 10.95v2h6v3.15h-6v6.6h8v-2h-6v-3.1h6v-6.65ZM7 41V7h34v34Zm2.25-2.25h29.5V9.25H9.25Zm2.8-1.7h2V27.7h3.1v6.25h2.05V27.7h3.35v9.35h2v-11.4h-12.5Zm15.85 0h2v-3.1h6v-8.3h-8Zm2-9.35h4v4.25h-4ZM9.25 9.25v29.5Z"/></svg>

<svg xmlns="http://www.w3.org/2000/svg" height="48" width="48"><path d="M20 10.95V12.95H26V16.1H20V22.7H28V20.7H22V17.6H28V10.95ZM7 41V7H41V41ZM9.25 38.75H38.75V9.25H9.25ZM12.05 37.05H14.05V27.7H17.15V33.95H19.2V27.7H22.55V37.05H24.55V25.65H12.05ZM27.9 37.05H29.9V33.95H35.9V25.65H27.9ZM29.9 27.7H33.9V31.95H29.9ZM9.25 9.25V38.75Z"/></svg>
